%
(Header)
(Generated by gcodetools from Inkscape.)
(Using default header. To add your own header create file "header" in the output dir.)
M3
(Header end.)
G21 (All units in mm)

(Start cutting path id: path24)
(Change tool to Default tool)

G00 Z0.100000
G00 X122.173002 Y46.770437

G01 Z-0.125000 F100.0(Penetrate)
G01 X160.096614 Y46.770437 Z-0.125000 F400.000000
G01 X160.096614 Y38.750255 Z-0.125000
G01 X146.454036 Y38.750255 Z-0.125000
G01 X146.454036 Y5.622218 Z-0.125000
G01 X135.843141 Y5.622218 Z-0.125000
G01 X135.843141 Y38.750255 Z-0.125000
G01 X122.173002 Y38.750255 Z-0.125000
G01 X122.173002 Y46.770437 Z-0.125000
G00 Z0.100000

(End cutting path id: path24)


(Start cutting path id: path22)
(Change tool to Default tool)

G00 Z0.100000
G00 X115.034766 Y45.475082

G01 Z-0.125000 F100.0(Penetrate)
G01 X115.034766 Y36.765880 Z-0.125000 F400.000000
G03 X111.592439 Y38.127721 Z-0.125000 I-17.270329 J-38.622712
G03 X108.420183 Y39.053425 Z-0.125000 I-11.018773 J-31.861489
G03 X105.174392 Y39.645607 Z-0.125000 I-7.056737 J-29.487146
G03 X102.329252 Y39.825125 Z-0.125000 I-2.845140 J-22.456338
G03 X98.617488 Y39.482369 Z-0.125000 I-0.000000 J-20.269084
G03 X96.706856 Y38.777816 Z-0.125000 I1.107788 J-5.947075
G03 X95.387298 Y37.441751 Z-0.125000 I1.761431 J-3.059330
G03 X94.887846 Y35.525645 Z-0.125000 I3.425766 J-1.916106
G03 X95.219488 Y34.034850 Z-0.125000 I3.516525 J-0.000000
G03 X96.100519 Y32.934935 Z-0.125000 I2.711840 J1.269372
G03 X97.432445 Y32.232121 Z-0.125000 I3.035767 J4.139682
G03 X100.565365 Y31.363972 Z-0.125000 I7.939973 J22.566251
G01 X105.085329 Y30.454467 Z-0.125000
G02 X111.604741 Y28.424405 Z-0.125000 I-6.493065 J-32.335421
G02 X114.841840 Y26.265229 Z-0.125000 I-4.225731 J-9.841501
G02 X116.889358 Y23.096250 Z-0.125000 I-5.859540 J-6.031880
G02 X117.735720 Y18.272608 Z-0.125000 I-13.322438 J-4.823642
G02 X116.535355 Y12.031749 Z-0.125000 I-16.823726 J0.000000
G02 X113.684287 Y8.130256 Z-0.125000 I-9.032345 J3.608032
G02 X109.286147 Y5.867759 Z-0.125000 I-7.433449 J9.044027
G02 X101.364626 Y4.822965 Z-0.125000 I-7.921521 J29.507666
G02 X97.468230 Y5.007118 Z-0.125000 I-0.000000 J41.312782
G02 X93.509809 Y5.567105 Z-0.125000 I4.092772 J43.201482
G02 X89.614845 Y6.477776 Z-0.125000 I8.618696 J45.647189
G02 X85.627429 Y7.771957 Z-0.125000 I13.744940 J49.138361
G01 X85.627429 Y16.729204 Z-0.125000
G03 X89.647611 Y14.828483 Z-0.125000 I22.277564 J41.917021
G03 X93.234200 Y13.559718 Z-0.125000 I13.362908 J32.070998
G03 X96.961798 Y12.760220 Z-0.125000 I8.000812 J28.213620
G03 X100.344877 Y12.512418 Z-0.125000 I3.383079 J22.969519
G03 X103.713370 Y12.874698 Z-0.125000 I0.000000 J15.841309
G03 X105.664105 Y13.669970 Z-0.125000 I-1.302387 J5.984779
G03 X107.021625 Y15.098149 Z-0.125000 I-2.108327 J3.363285
G03 X107.510677 Y16.977251 Z-0.125000 I-3.365542 J1.879101
G03 X107.151461 Y18.737316 Z-0.125000 I-4.491541 J0.000000
G03 X106.242881 Y19.953813 Z-0.125000 I-2.952272 J-1.257450
G03 X104.879947 Y20.752963 Z-0.125000 I-2.996138 J-3.548053
G03 X101.254382 Y21.827947 Z-0.125000 I-9.356245 J-24.904102
G01 X97.147829 Y22.737452 Z-0.125000
G02 X91.320383 Y24.693062 Z-0.125000 I5.726969 J26.725862
G02 X88.107898 Y26.954249 Z-0.125000 I4.719504 J10.117630
G02 X86.076009 Y30.177810 Z-0.125000 I6.423201 J6.300856
G02 X85.269138 Y34.753946 Z-0.125000 I12.573264 J4.576136
G02 X86.400245 Y40.370212 Z-0.125000 I14.508739 J-0.000000
G02 X89.237888 Y44.207286 Z-0.125000 I9.282850 J-3.897174
G02 X93.570515 Y46.509535 Z-0.125000 I7.666582 J-9.199892
G02 X100.648047 Y47.514580 Z-0.125000 I7.077532 J-24.417471
G02 X104.028806 Y47.387813 Z-0.125000 I0.000000 J-45.144156
G02 X107.620919 Y46.990925 Z-0.125000 I-3.857848 J-51.370188
G02 X111.180912 Y46.381169 Z-0.125000 I-7.730118 J-55.828647
G02 X115.034766 Y45.475082 Z-0.125000 I-13.564368 J-66.342069
G01 X115.034766 Y45.475082 Z-0.125000
G00 Z0.100000

(End cutting path id: path22)


(Start cutting path id: path20)
(Change tool to Default tool)

G00 Z0.100000
G00 X47.814063 Y46.770437

G01 Z-0.125000 F100.0(Penetrate)
G01 X76.449698 Y46.770437 Z-0.125000 F400.000000
G01 X76.449698 Y38.750255 Z-0.125000
G01 X58.424958 Y38.750255 Z-0.125000
G01 X58.424958 Y31.088363 Z-0.125000
G01 X75.374828 Y31.088363 Z-0.125000
G01 X75.374828 Y23.068181 Z-0.125000
G01 X58.424958 Y23.068181 Z-0.125000
G01 X58.424958 Y13.642400 Z-0.125000
G01 X77.056035 Y13.642400 Z-0.125000
G01 X77.056035 Y5.622218 Z-0.125000
G01 X47.814063 Y5.622218 Z-0.125000
G01 X47.814063 Y46.770437 Z-0.125000
G00 Z0.100000

(End cutting path id: path20)


(Start cutting path id: path18)
(Change tool to Default tool)

G00 Z0.100000
G00 X4.433420 Y46.770437

G01 Z-0.125000 F100.0(Penetrate)
G01 X42.357032 Y46.770437 Z-0.125000 F400.000000
G01 X42.357032 Y38.750255 Z-0.125000
G01 X28.714454 Y38.750255 Z-0.125000
G01 X28.714454 Y5.622218 Z-0.125000
G01 X18.103559 Y5.622218 Z-0.125000
G01 X18.103559 Y38.750255 Z-0.125000
G01 X4.433420 Y38.750255 Z-0.125000
G01 X4.433420 Y46.770437 Z-0.125000
G00 Z0.100000

(End cutting path id: path18)


(Footer)
M5
G00 X0.0000 Y0.0000
M2
(Using default footer. To add your own footer create file "footer" in the output dir.)
(end)
%