; Header)
; Generated by gcodetools from Inkscape.)
; Using default header. To add your own header create file "header" in the output dir.)
M3 
; Header end.)
G21 ; All units in mm)
; Start cutting path id: path24)
; Change tool to Default tool)
G0 Z0.1 
G0 X122.173 Y46.7704 
G1 Z-0.125 F100 ; Penetrate)
G1 X160.097 Y46.7704 Z-0.125 F400 
G1 X160.597 Y46.7704 Z-0.125 
G2 X160.097 Y46.2704 Z-0.125 I-0.5 J-0 K-0 
G1 X160.097 Y38.7503 Z-0.125 
G1 X160.097 Y38.2503 Z-0.125 
G2 X159.597 Y38.7503 Z-0.125 I-0 J0.5 K-0 
G1 X146.454 Y38.7503 Z-0.125 
G1 X145.954 Y38.7503 Z-0.125 
G3 X146.454 Y38.2503 Z-0.125 I0.5 J-0 K-0 
G1 X146.454 Y5.62222 Z-0.125 
G1 X146.454 Y5.12222 Z-0.125 
G2 X145.954 Y5.62222 Z-0.125 I-0 J0.5 K-0 
G1 X135.843 Y5.62222 Z-0.125 
G1 X135.343 Y5.62222 Z-0.125 
G2 X135.843 Y6.12222 Z-0.125 I0.5 J-0 K-0 
G1 X135.843 Y38.7503 Z-0.125 
G1 X135.843 Y39.2503 Z-0.125 
G3 X135.343 Y38.7503 Z-0.125 I-0 J-0.5 K-0 
G1 X122.173 Y38.7503 Z-0.125 
G1 X121.673 Y38.7503 Z-0.125 
G2 X122.173 Y39.2503 Z-0.125 I0.5 J-0 K-0 
G1 X122.173 Y46.7704 Z-0.125 
G1 X122.173 Y47.2704 Z-0.125 
G0 Z0.1 
; End cutting path id: path24)
; Start cutting path id: path22)
; Change tool to Default tool)
G0 Z0.1 
G0 X115.035 Y45.4751 
G1 Z-0.125 F100 ; Penetrate)
G1 X115.035 Y36.7659 Z-0.125 F400 
G1 X115.035 Y36.2659 Z-0.125 
G2 X114.57 Y36.9498 Z-0.125 I-0 J0.5 K-0 
G3 X111.592 Y38.1277 Z-0.125 I-17.2703 J-38.6227 
G3 X108.42 Y39.0534 Z-0.125 I-11.0188 J-31.8615 
G3 X105.174 Y39.6456 Z-0.125 I-7.05674 J-29.4871 
G3 X102.329 Y39.8251 Z-0.125 I-2.84514 J-22.4563 
G3 X98.6175 Y39.4824 Z-0.125 I-0 J-20.2691 
G3 X96.7069 Y38.7778 Z-0.125 I1.10779 J-5.94707 
G3 X95.3873 Y37.4418 Z-0.125 I1.76143 J-3.05933 
G3 X94.8878 Y35.5256 Z-0.125 I3.42577 J-1.91611 
G3 X95.2195 Y34.0348 Z-0.125 I3.51653 J-0 
G3 X96.1005 Y32.9349 Z-0.125 I2.71184 J1.26937 
G3 X97.4324 Y32.2321 Z-0.125 I3.03577 J4.13968 
G3 X100.565 Y31.364 Z-0.125 I7.93997 J22.5663 
G1 X105.085 Y30.4545 Z-0.125 
G1 X105.576 Y30.3558 Z-0.125 
G2 X105.563 Y30.3058 Z-0.125 I-0.490175 J0.0986328 K-0 
G2 X111.605 Y28.4244 Z-0.125 I-6.49306 J-32.3354 
G2 X114.842 Y26.2652 Z-0.125 I-4.22573 J-9.8415 
G2 X116.889 Y23.0963 Z-0.125 I-5.85954 J-6.03188 
G2 X117.736 Y18.2726 Z-0.125 I-13.3224 J-4.82364 
G2 X116.535 Y12.0317 Z-0.125 I-16.8237 J0 
G2 X113.684 Y8.13026 Z-0.125 I-9.03234 J3.60803 
G2 X109.286 Y5.86776 Z-0.125 I-7.43345 J9.04403 
G2 X101.365 Y4.82296 Z-0.125 I-7.92152 J29.5077 
G2 X97.4682 Y5.00712 Z-0.125 I-0 J41.3128 
G2 X93.5098 Y5.5671 Z-0.125 I4.09277 J43.2015 
G2 X89.6148 Y6.47778 Z-0.125 I8.6187 J45.6472 
G2 X85.6274 Y7.77196 Z-0.125 I13.7449 J49.1384 
G1 X85.6274 Y16.7292 Z-0.125 
G1 X85.6274 Y17.2292 Z-0.125 
G2 X86.0795 Y16.5155 Z-0.125 I-0 J-0.5 K-0 
G3 X89.6476 Y14.8285 Z-0.125 I22.2776 J41.917 
G3 X93.2342 Y13.5597 Z-0.125 I13.3629 J32.071 
G3 X96.9618 Y12.7602 Z-0.125 I8.00081 J28.2136 
G3 X100.345 Y12.5124 Z-0.125 I3.38308 J22.9695 
G3 X103.713 Y12.8747 Z-0.125 I0 J15.8413 
G3 X105.664 Y13.67 Z-0.125 I-1.30239 J5.98478 
G3 X107.022 Y15.0981 Z-0.125 I-2.10833 J3.36328 
G3 X107.511 Y16.9773 Z-0.125 I-3.36554 J1.8791 
G3 X107.151 Y18.7373 Z-0.125 I-4.49154 J0 
G3 X106.243 Y19.9538 Z-0.125 I-2.95227 J-1.25745 
G3 X104.88 Y20.753 Z-0.125 I-2.99614 J-3.54805 
G3 X101.254 Y21.8279 Z-0.125 I-9.35624 J-24.9041 
G1 X97.1478 Y22.7375 Z-0.125 
G1 X96.6597 Y22.8456 Z-0.125 
G2 X96.6738 Y22.8965 Z-0.125 I0.48817 J-0.108118 K-0 
G2 X91.3204 Y24.6931 Z-0.125 I5.72697 J26.7259 
G2 X88.1079 Y26.9542 Z-0.125 I4.7195 J10.1176 
G2 X86.076 Y30.1778 Z-0.125 I6.4232 J6.30086 
G2 X85.2691 Y34.7539 Z-0.125 I12.5733 J4.57614 
G2 X86.4002 Y40.3702 Z-0.125 I14.5087 J-0 
G2 X89.2379 Y44.2073 Z-0.125 I9.28285 J-3.89717 
G2 X93.5705 Y46.5095 Z-0.125 I7.66658 J-9.19989 
G2 X100.648 Y47.5146 Z-0.125 I7.07753 J-24.4175 
G2 X104.029 Y47.3878 Z-0.125 I0 J-45.1442 
G2 X107.621 Y46.9909 Z-0.125 I-3.85785 J-51.3702 
G2 X111.181 Y46.3812 Z-0.125 I-7.73012 J-55.8286 
G2 X115.035 Y45.4751 Z-0.125 I-13.5644 J-66.3421 
G1 X115.035 Y45.4751 Z-0.125 
G1 X115.035 Y45.4751 Z-0.125 
G0 Z0.1 
; End cutting path id: path22)
; Start cutting path id: path20)
; Change tool to Default tool)
G0 Z0.1 
G0 X47.8141 Y46.7704 
G1 Z-0.125 F100 ; Penetrate)
G1 X76.4497 Y46.7704 Z-0.125 F400 
G1 X76.9497 Y46.7704 Z-0.125 
G2 X76.4497 Y46.2704 Z-0.125 I-0.5 J-0 K-0 
G1 X76.4497 Y38.7503 Z-0.125 
G1 X76.4497 Y38.2503 Z-0.125 
G2 X75.9497 Y38.7503 Z-0.125 I-0 J0.5 K-0 
G1 X58.425 Y38.7503 Z-0.125 
G1 X57.925 Y38.7503 Z-0.125 
G3 X58.425 Y38.2503 Z-0.125 I0.5 J-0 K-0 
G1 X58.425 Y31.0884 Z-0.125 
G1 X58.425 Y30.5884 Z-0.125 
G3 X58.925 Y31.0884 Z-0.125 I-0 J0.5 K-0 
G1 X75.3748 Y31.0884 Z-0.125 
G1 X75.8748 Y31.0884 Z-0.125 
G2 X75.3748 Y30.5884 Z-0.125 I-0.5 J-0 K-0 
G1 X75.3748 Y23.0682 Z-0.125 
G1 X75.3748 Y22.5682 Z-0.125 
G2 X74.8748 Y23.0682 Z-0.125 I-0 J0.5 K-0 
G1 X58.425 Y23.0682 Z-0.125 
G1 X57.925 Y23.0682 Z-0.125 
G3 X58.425 Y22.5682 Z-0.125 I0.5 J-0 K-0 
G1 X58.425 Y13.6424 Z-0.125 
G1 X58.425 Y13.1424 Z-0.125 
G3 X58.925 Y13.6424 Z-0.125 I-0 J0.5 K-0 
G1 X77.056 Y13.6424 Z-0.125 
G1 X77.556 Y13.6424 Z-0.125 
G2 X77.056 Y13.1424 Z-0.125 I-0.5 J-0 K-0 
G1 X77.056 Y5.62222 Z-0.125 
G1 X77.056 Y5.12222 Z-0.125 
G2 X76.556 Y5.62222 Z-0.125 I-0 J0.5 K-0 
G1 X47.8141 Y5.62222 Z-0.125 
G1 X47.3141 Y5.62222 Z-0.125 
G2 X47.8141 Y6.12222 Z-0.125 I0.5 J-0 K-0 
G1 X47.8141 Y46.7704 Z-0.125 
G1 X47.8141 Y47.2704 Z-0.125 
G0 Z0.1 
; End cutting path id: path20)
; Start cutting path id: path18)
; Change tool to Default tool)
G0 Z0.1 
G0 X4.43342 Y46.7704 
G1 Z-0.125 F100 ; Penetrate)
G1 X42.357 Y46.7704 Z-0.125 F400 
G1 X42.857 Y46.7704 Z-0.125 
G2 X42.357 Y46.2704 Z-0.125 I-0.5 J-0 K-0 
G1 X42.357 Y38.7503 Z-0.125 
G1 X42.357 Y38.2503 Z-0.125 
G2 X41.857 Y38.7503 Z-0.125 I-0 J0.5 K-0 
G1 X28.7145 Y38.7503 Z-0.125 
G1 X28.2145 Y38.7503 Z-0.125 
G3 X28.7145 Y38.2503 Z-0.125 I0.5 J-0 K-0 
G1 X28.7145 Y5.62222 Z-0.125 
G1 X28.7145 Y5.12222 Z-0.125 
G2 X28.2145 Y5.62222 Z-0.125 I-0 J0.5 K-0 
G1 X18.1036 Y5.62222 Z-0.125 
G1 X17.6036 Y5.62222 Z-0.125 
G2 X18.1036 Y6.12222 Z-0.125 I0.5 J-0 K-0 
G1 X18.1036 Y38.7503 Z-0.125 
G1 X18.1036 Y39.2503 Z-0.125 
G3 X17.6036 Y38.7503 Z-0.125 I-0 J-0.5 K-0 
G1 X4.43342 Y38.7503 Z-0.125 
G1 X3.93342 Y38.7503 Z-0.125 
G2 X4.43342 Y39.2503 Z-0.125 I0.5 J-0 K-0 
G1 X4.43342 Y46.7704 Z-0.125 
G1 X4.43342 Y47.2704 Z-0.125 
G0 Z0.1 
; End cutting path id: path18)
; Footer)
M5 
G0 X0 Y0 
M2 
; Using default footer. To add your own footer create file "footer" in the output dir.)
; end)
